X:34
%%pagewidth 7.5in
%%score 1 2
%%pos orn above
T:The Cramp
M:6/8
L:1/8
K:Bb
V:1 clef-treble
V:2 clef-bass octave=-1
V:1
G|d2d c2c & G3 G3|[Bd]>[Ac][GB] [^FA]2G|d>ed c2e & G3 G3|[^Fd]3 G2G|
w:The cramp is in my purse* full sore, No money* will bide there-in, a, And
V:2
z|[GB]3 [Ge]3|d2d c2B & G6|G3 G3 & B,3 E2C|[Dc]3 [GB]2 z|
V:1
d2d c2c & G3 G3|[Bd]>[Ac][GB] [^FA]2G|d>ed c2e & G3 G3|[^Fd]3 G2z|
w:if I had some salve* there-fore, O light-ly then would I sing, a,
V:2
[GB]3 [Ge]3|d2d c2B & G6|G3 c3 & B,3 E2C|[Dc]3 [GB]2z|
V:1
!>![Gc]3 G2[GB]|[^FA]3 G2z|!>![Gd]3 G2[GB]|[^FA]3 G2z|
w:Hey ho! the cramp, a. Hey ho! the cramp, a.
V:2
(e3B2)d & G6|c3 B2 z & G3-G2x|(B3e2)d & D6|[Dc]3 [GB]2z|
V:1
!>![Gc]3 G2[GB]|[^FA]3 G3|!>![Gd]3 G2[GB]|[^FA]3 G2||
w:Hey ho! the cramp, a. Hey ho! the cramp, a.
V:2
(e3B2)d & G6|c3 B2 z & G3-G2x|(B3e2)d & D6|[Dc]3 [GB]2x||

